X:1
T:Title
%%score { ( 1 3 ) | ( 2 4 ) }
L:1/8
M:3/4
K:D
V:1 treble nm="Grand Piano"
V:3 treble 
V:2 bass 
V:4 bass 
V:1
 z6[Q:1/4=112] | [A,DF]6 | [DG]2 [DF]2 [A,DA]2 | [A,CG]6 | [A,DF]4 [=CDF]2 | [DG]6 | %6
 [GB]2 [DA]2 [DG]2 | [DF]2 [DA]2 [B,E^G]2 | [CEA]4 z2 | [CEA]6 | G2 F2 E2 | D2 E2 G2 | F4 A2 | %13
 A2 A2 E2 | E2 A2 A2 | A4 z2 |[M:7/8] A-A-A- A- A2- A/ z/ |[M:3/4] [Fd]2 [Fc]2 [Fd]2 | %18
 [FB]>[FA] [DF]2 [EG]2 | [FA]2 [FB]2 [Fd]2 | [Gc]6 | E2 F2 G2 | e2 [CGc]2 [DGB]2 | %23
 [EGA]2 [CGB]2 [EG]2 | F6 | f2 e2 d2 | c4 cc |[Q:1/4=110] d2[Q:1/4=109] c2[Q:1/4=107] B2 | %28
[Q:1/4=106] A4[Q:1/4=104][Q:1/4=103] z2 |[Q:1/4=101] A2[Q:1/4=100] G2[Q:1/4=98] G2 | %30
[Q:1/4=96] G2[Q:1/4=95] F2[Q:1/4=93] F2 | %31
[Q:1/4=92] [^G,DF]2[K:bass][Q:1/4=90] [G,D]2[Q:1/4=89] [=G,CE]2 |[Q:1/4=87] [F,D]6[Q:1/4=86] |] %33
V:2
 z2 z2 A,,2 | F,2 =F,2 ^F,2 | B,2 A,2 F,2 | E,2 D,2 E,2 | D,4 D,2 | G,2 A,2 B,2 | D2 C2 B,2 | %7
 A,2 F,2 D,2 | E,4 E,2 | E,2 F,2 G,2 | B,2 A,2 [G,A,]2 | A,2- [G,A,]2 [B,D]2 | [A,D]4 [F,D]2 | %13
 [E,CE]2 [F,=C^D]2[K:treble] [^G,B,=D]2 | [A,C]2 [DF]2 [CE]2 | [^DF]4[K:bass] [B,=DE]2 | %16
[M:7/8] [CE]- [C-E]3 C2- C/ z/ |[M:3/4] [D,A,]2 [D,A,]2 [D,A,]2 | [D,D]>[D,D] [D,A,]2 [D,A,]2 | %19
 [D,D]2 [D,D]2 [D,A,]2 | [E,A,]6 | [G,A,C]2 [F,A,C]2 [E,A,C]2 | [A,,CG]2 [A,,A,]2 [B,,B,]2 | %23
 [C,C]2 [A,,A,]2 [A,,A,]2 | [D,A,D]6 | [DA]2 [^A,CG]2 [B,F]2 | [F,^A,E]4 [F,A,E][F,A,E] | %27
 [G,B,D]2 [G,A,D]2 [G,D]2 | [F,D]2 z2 z2 | [G,=CD]2 [G,B,D]2 [G,^A,D]2 | %30
 [D,A,D]2 [D,A,D]2 [D,A,D]2 | B,,2 E,2 A,,2 | D,6 |] %33
V:3
 x6 | x6 | x6 | x6 | x6 | B,4 z2 | x6 | x6 | x6 | x6 | C4 z2 | x6 | x6 | x6 | x6 | z2 F,2 ^G2 | %16
[M:7/8] z z z2 F3 |[M:3/4] x6 | x6 | x6 | x6 | x6 | x6 | x6 | x6 | x6 | x6 | x6 | z2 D2 A2 | x6 | %30
 x6 | x2[K:bass] x4 | x6 |] %33
V:4
 x6 | x6 | x6 | x6 | x6 | x6 | x6 | x6 | x6 | x6 | x6 | F,2 z2 z2 | x6 | x4[K:treble] x2 | x6 | %15
 C2 z2[K:bass] z2 |[M:7/8] A,-A,-A,- A,- A,3 |[M:3/4] x6 | x6 | x6 | x6 | x6 | x6 | x6 | x6 | x6 | %26
 x6 | x6 | D,4 [D,=CD]2 | x6 | x6 | x6 | x6 |] %33

